X: 500
T: Mr Dundass Mc Queen's Reel
%R: reel
B: "Preston's Twenty Four Country Dances for the Year 1803", Tho. Preston, ed. p.210 #2
F: http://folkopedia.efdss.org/images/archive/0/02/20121211105513%21Preston_24_1803.PDF
F: http://folkopedia.efdss.org/wiki/File:Preston_24_1803.PDF
Z: 2014 John Chambers <jc:trillian.mit.edu>
M: C
L: 1/8
K: Cm
% - - - - - - - - - - - - - - - - - - - - - - - - -
G, |\
CDEF (E/F/G) Gc | B(GFE) D/E/F DB, |\
CDEF (E/F/G) Gc |[1 BGFD C/C/C C :|\
[2 dBfd c/c/c c |]
|: d |\
c>def g<ce>c | f<Bd>f bfdB |\
[1 c>def g<ce>c | dBfd c/c/c c :|\
[2 c>def g<bf>d | Bdbd c/c/c c |]
% - - - - - - - - - - - - - - - - - - - - - - - - -
%%begintext align
%% Cast off 2 Cu. down the middle twice.
%% Allemande, turn corners & lead outsides.
%%endtext

%%sep 1 1 500
%%sep 1 1 500
